src/assets/img/plus.svg

<svg fill="none" height="30" viewBox="0 0 32 30" width="32" xmlns="http://www.w3.org/2000/svg"><path d="m31.3503 20.0977c-1.018.1955-2.4041.3475-4.1584.456-1.7327.0869-3.6819.1303-5.8477.1303-2.3608 0-4.8406-.0543-7.4396-.1628-2.599-.1086-5.06805-.2498-7.40714-.4235-2.33908-.1954-4.29915-.4017-5.880201-.6189-.064975-.3691-.140778-1.0097-.227411-1.9218-.064975-.9121-.129949-1.9001-.194924-2.9642-.043317-1.0857-.086633-2.0629-.1299494-2.9316-.0433164-.8903-.0649746-1.4875-.0649746-1.79149.84467.10857 2.02504.20629 3.54112.29319 1.53773.0651 3.27039.1194 5.19797.1628 1.94921.0435 3.95261.0652 6.01011.0652 2.3391 0 4.6241-.0326 6.8549-.0977 2.2308-.0652 4.2558-.1629 6.0751-.2932 1.8193-.13029 3.2595-.2823 4.3208-.45603 0 1.30293-.0433 2.71443-.1299 4.23453-.065 1.4984-.1517 2.8447-.2599 4.0391-.1083 1.1943-.195 1.9544-.2599 2.2801zm-10.1036-20.0977c.2599.912051.4765 2.20412.6497 3.87622.195 1.6721.3466 3.5722.4549 5.70033.1299 2.12815.1949 4.32135.1949 6.57985 0 2.4104-.0866 4.8534-.2599 7.3289-.1516 2.4539-.4115 4.6254-.7797 6.5147-.3465 0-.9854-.0109-1.9168-.0326-.9313-.0217-1.96-.0543-3.0862-.0977-1.1046-.0434-2.1226-.0869-3.0539-.1303-.9096-.0434-1.516-.0868-1.8192-.1303.1082-.8903.1841-1.8675.2274-2.9316.0433-1.064.0649-2.1607.0649-3.2899 0-2.063-.0649-4.2128-.1949-6.4495-.1299-2.2584-.2924-4.4517-.4873-6.5798-.1949-2.12812-.4007-4.0608-.6172-5.79804-.2166-1.73724-.4224-3.10532-.6173-4.104236.2382-.021714.7472-.043429 1.5269-.065146.7797-.04343 1.6677-.086861 2.664-.130291 1.0179-.065147 2.025-.108579 3.0213-.130296 1.0179-.04343 1.8951-.0760035 2.6314-.0977201.7364-.0217139 1.2021-.0325709 1.397-.0325709z" fill="#fae5aa"/></svg>

<svg width="32" height="30" viewBox="0 0 32 30" fill="none" xmlns="http://www.w3.org/2000/svg">
<path d="M31.3503 20.0977C30.3323 20.2932 28.9462 20.4452 27.1919 20.5537C25.4592 20.6406 23.51 20.684 21.3442 20.684C18.9834 20.684 16.5036 20.6297 13.9046 20.5212C11.3056 20.4126 8.83655 20.2714 6.49746 20.0977C4.15838 19.9023 2.19831 19.696 0.617259 19.4788C0.552284 19.1097 0.476481 18.4691 0.389848 17.557C0.324873 16.6449 0.259899 15.6569 0.194924 14.5928C0.151607 13.5071 0.108291 12.5299 0.0649746 11.6612C0.0216582 10.7709 0 10.1737 0 9.86971C0.84467 9.97828 2.02504 10.076 3.54112 10.1629C5.07885 10.228 6.81151 10.2823 8.73909 10.3257C10.6883 10.3692 12.6917 10.3909 14.7492 10.3909C17.0883 10.3909 19.3733 10.3583 21.6041 10.2932C23.8349 10.228 25.8599 10.1303 27.6792 10C29.4985 9.86971 30.9387 9.7177 32 9.54397C32 10.8469 31.9567 12.2584 31.8701 13.7785C31.8051 15.2769 31.7184 16.6232 31.6102 17.8176C31.5019 19.0119 31.4152 19.772 31.3503 20.0977ZM21.2467 0C21.5066 0.912051 21.7232 2.20412 21.8964 3.87622C22.0914 5.54832 22.243 7.44842 22.3513 9.57655C22.4812 11.7047 22.5462 13.8979 22.5462 16.1564C22.5462 18.5668 22.4596 21.0098 22.2863 23.4853C22.1347 25.9392 21.8748 28.1107 21.5066 30C21.1601 30 20.5212 29.9891 19.5898 29.9674C18.6585 29.9457 17.6298 29.9131 16.5036 29.8697C15.399 29.8263 14.381 29.7828 13.4497 29.7394C12.5401 29.696 11.9337 29.6526 11.6305 29.6091C11.7387 28.7188 11.8146 27.7416 11.8579 26.6775C11.9012 25.6135 11.9228 24.5168 11.9228 23.3876C11.9228 21.3246 11.8579 19.1748 11.7279 16.9381C11.598 14.6797 11.4355 12.4864 11.2406 10.3583C11.0457 8.23018 10.8399 6.2975 10.6234 4.56026C10.4068 2.82302 10.201 1.45494 10.0061 0.456024C10.2443 0.43431 10.7533 0.412595 11.533 0.390878C12.3127 0.347448 13.2007 0.304017 14.197 0.260587C15.2149 0.19544 16.222 0.152008 17.2183 0.130291C18.2362 0.086861 19.1134 0.0542875 19.8497 0.0325709C20.5861 0.010857 21.0518 0 21.2467 0Z" fill="#FAE5AA"/>
</svg>
